symbolic/64x64/apps/applications-interfacedesign.svg

<svg xmlns="http://www.w3.org/2000/svg" width="64" height="64" version="1">
 <path style="opacity:0.2" d="M 4,14 V 55.222222 C 4,56.762222 5.24775,58 6.8,58 H 57.2014 C 58.7526,58 60,56.7625 60,55.222222 V 14 Z"/>
 <rect style="opacity:0.2" width="44.8" height="5.6" x="9.6" y="42.1" rx="2.133" ry="2.322"/>
 <path style="fill:#c7c7c7" d="M 4,13 V 54.222222 C 4,55.762222 5.24775,57 6.8,57 H 57.2014 C 58.7526,57 60,55.7625 60,54.222222 V 13 Z"/>
 <path style="fill:#5a6367" d="m 6.8,7.0000002 c -1.55232,0 -2.8,1.2381944 -2.8,2.7770832 V 13 H 60 V 9.7770834 C 60,8.2381946 58.7526,7.0000002 57.2,7.0000002 Z"/>
 <rect style="opacity:0.2" width="44" height="6" x="10" y="42" rx="2.095" ry="2.488"/>
 <rect style="fill:#ffffff" width="44" height="6" x="10" y="41" rx="2.095" ry="2.488"/>
 <path style="opacity:0.1;fill-rule:evenodd" d="m 48,45 c 0,3.863996 -3.136004,7 -7,7 -3.864,0 -7,-3.136004 -7,-7 0,-3.864 3.136,-7 7,-7 3.863996,0 7,3.136 7,7 z"/>
 <path style="fill:#5294e2;fill-rule:evenodd" d="m 48,44 c 0,3.863996 -3.136004,7 -7,7 -3.864,0 -7,-3.136004 -7,-7 0,-3.864 3.136,-7 7,-7 3.863996,0 7,3.136 7,7 z"/>
 <circle style="opacity:0.2" cx="13" cy="23" r="3"/>
 <circle style="fill:#fffff7" cx="13" cy="22" r="3"/>
 <rect style="opacity:0.1" width="6" height="6" x="22" y="30" rx=".944" ry="1.031"/>
 <rect style="fill:#5294e2" width="6" height="6" x="22" y="29" rx=".944" ry="1.031"/>
 <circle style="opacity:0.1" cx="13" cy="33" r="3"/>
 <circle style="fill:#5294e2" cx="13" cy="32" r="3"/>
 <rect style="opacity:0.2" width="6" height="6" x="22" y="20" rx=".944" ry="1.031"/>
 <rect style="fill:#ffffff" width="6" height="6" x="22" y="19" rx=".944" ry="1.031"/>
 <path style="opacity:0.1;fill:#ffffff" d="M 6.8007812 7 C 5.2484613 7 4 8.238455 4 9.7773438 L 4 10.777344 C 4 9.2384548 5.2484613 8 6.8007812 8 L 57.199219 8 C 58.751819 8 60 9.2384548 60 10.777344 L 60 9.7773438 C 60 8.2384549 58.751819 7 57.199219 7 L 6.8007812 7 z"/>
</svg>

<svg xmlns="http://www.w3.org/2000/svg" width="64" height="64" version="1"><path style="opacity:.2" d="M4 14v41.222A2.781 2.781 0 0 0 6.8 58h50.401A2.78 2.78 0 0 0 60 55.222V14z"/><rect style="opacity:.2" width="44.8" height="5.6" x="9.6" y="42.1" rx="2.133" ry="2.322"/><path style="fill:#c7c7c7" d="M4 13v41.222A2.781 2.781 0 0 0 6.8 57h50.401A2.78 2.78 0 0 0 60 54.222V13z"/><path style="fill:#5a6367" d="M6.8 7A2.782 2.782 0 0 0 4 9.777V13h56V9.777A2.781 2.781 0 0 0 57.2 7z"/><rect style="opacity:.2" width="44" height="6" x="10" y="42" rx="2.095" ry="2.488"/><rect style="fill:#fff" width="44" height="6" x="10" y="41" rx="2.095" ry="2.488"/><path style="opacity:.1;fill-rule:evenodd" d="M48 45c0 3.864-3.136 7-7 7s-7-3.136-7-7 3.136-7 7-7 7 3.136 7 7z"/><path style="fill:#5294e2;fill-rule:evenodd" d="M48 44c0 3.864-3.136 7-7 7s-7-3.136-7-7 3.136-7 7-7 7 3.136 7 7z"/><circle style="opacity:.2" cx="13" cy="23" r="3"/><circle style="fill:#fffff7" cx="13" cy="22" r="3"/><rect style="opacity:.1" width="6" height="6" x="22" y="30" rx=".944" ry="1.031"/><rect style="fill:#5294e2" width="6" height="6" x="22" y="29" rx=".944" ry="1.031"/><circle style="opacity:.1" cx="13" cy="33" r="3"/><circle style="fill:#5294e2" cx="13" cy="32" r="3"/><rect style="opacity:.2" width="6" height="6" x="22" y="20" rx=".944" ry="1.031"/><rect style="fill:#fff" width="6" height="6" x="22" y="19" rx=".944" ry="1.031"/><path style="opacity:.1;fill:#fff" d="M6.8 7A2.782 2.782 0 0 0 4 9.777v1A2.782 2.782 0 0 1 6.8 8h50.4c1.552 0 2.8 1.238 2.8 2.777v-1A2.782 2.782 0 0 0 57.2 7H6.8z"/></svg>
